app/dist/common/images/emcor.svg

<svg height="18" width="18" xmlns="http://www.w3.org/2000/svg"><path d="m0 0h18v18h-18z" fill="#007d86"/><path d="m8.983 2 .77 1h-1.537l.768-1zm-1.536 2h3.077l.77 1h-4.614l.768-1zm-1.535 2.178-.768 1.077h7.692l-.77-1.077h-6.155zm-1.912 2.81.375-.526h9.231l.394.55-.375.526h-9.231zm1.164 1.716.77 1.077h6.155l.768-1.077zm2.312 3.296-.77-1h4.615l-.768 1zm.77 1 .77 1 .769-1z" fill="#fff"/></svg>

<!-- by TradingView --><svg width="18" height="18" xmlns="http://www.w3.org/2000/svg"><path fill="#007D86" d="M0 0h18v18H0z"/><path d="M8.983 2l.77 1H8.216l.768-1zM7.447 4h3.077l.77 1H6.68l.768-1zM5.912 6.178l-.768 1.077h7.692l-.77-1.077H5.911zM4 8.988l.375-.526h9.231l.394.55-.375.526H4.394L4 8.988zM5.164 10.704l.77 1.077h6.155l.768-1.077H5.164zM7.476 14l-.77-1h4.615l-.768 1H7.476zM8.246 15l.77 1 .769-1H8.246z" fill="#fff"/></svg>
